X:104
T:The Traveller
Z:Philippe Murphy 2006-04-01
R:reel
M:4/4
L:1/8
K:Gmaj
G2BG DGBG | ABcd cBAG | (3B^cd gd egdB | cBAG FADF |
G2BG DGBG | ABcd cBAG | (3B^cd gd egdB | cAFA G4 ::
g2dg egdg | g2bg agef | g2dg egdB | cBAG FAD2 |
g2dg egdg | g2bg agef | g3a gfed | (3efg (3fga g4 :|
